src/assets/Vector.svg

<svg width="32" height="45" viewBox="0 0 32 45" fill="none" xmlns="http://www.w3.org/2000/svg">
<path d="M13.6072 15.8V5.26513C8.71664 6.26116 5.03568 10.5992 5.03568 15.8V28.7C5.03568 34.6371 9.83265 39.45 15.75 39.45C21.6673 39.45 26.4643 34.6371 26.4643 28.7V15.8C26.4643 10.5992 22.7834 6.26116 17.8928 5.26513V15.8C17.8928 16.9874 16.9335 17.95 15.75 17.95C14.5665 17.95 13.6072 16.9874 13.6072 15.8ZM30.75 28.7C30.75 37.0119 24.0343 43.75 15.75 43.75C7.46571 43.75 0.750001 37.0119 0.75 28.7V15.8C0.75 7.4881 7.46571 0.75 15.75 0.75C24.0343 0.75 30.75 7.4881 30.75 15.8V28.7Z" fill="black" stroke="#F0F1FA" stroke-width="1.5" stroke-linecap="round" stroke-linejoin="round"/>
</svg>

<svg xmlns="http://www.w3.org/2000/svg" width="32" height="45" fill="none"><path fill="#000" stroke="#F0F1FA" stroke-linecap="round" stroke-linejoin="round" stroke-width="1.5" d="M13.607 15.8V5.265C8.717 6.261 5.036 10.6 5.036 15.8v12.9c0 5.937 4.797 10.75 10.714 10.75s10.714-4.813 10.714-10.75V15.8c0-5.2-3.68-9.539-8.571-10.535V15.8c0 1.187-.96 2.15-2.143 2.15a2.146 2.146 0 0 1-2.143-2.15M30.75 28.7c0 8.312-6.716 15.05-15 15.05s-15-6.738-15-15.05V15.8C.75 7.488 7.466.75 15.75.75s15 6.738 15 15.05z"/></svg>
